page/img/svg-margin-1.svg

<svg width="33" height="24" viewBox="0 0 33 24" fill="none" xmlns="http://www.w3.org/2000/svg">
<g clip-path="url(#clip0_2_4237)">
<path fill-rule="evenodd" clip-rule="evenodd" d="M3.06445 10.6363C3.06445 6.3938 6.50372 2.95453 10.7463 2.95453C14.9888 2.95453 18.4281 6.3938 18.4281 10.6363C18.4281 14.8789 14.9888 18.3182 10.7463 18.3182C6.50372 18.3182 3.06445 14.8789 3.06445 10.6363ZM10.7463 1.95453C5.95144 1.95453 2.06445 5.84151 2.06445 10.6363C2.06445 15.4312 5.95144 19.3182 10.7463 19.3182C12.9638 19.3182 14.9871 18.4868 16.5216 17.1187L21.3018 21.899C21.4971 22.0943 21.8136 22.0943 22.0089 21.899C22.2042 21.7037 22.2042 21.3871 22.0089 21.1919L17.2287 16.4116C18.5967 14.8772 19.4281 12.8538 19.4281 10.6363C19.4281 5.84151 15.5411 1.95453 10.7463 1.95453Z" fill="#00AFF5"/>
</g>
<defs>
<clipPath id="clip0_2_4237">
<rect width="24" height="24" fill="white" transform="translate(0.109863)"/>
</clipPath>
</defs>
</svg>

<?xml version="1.0"?>
<svg width="33" height="24" xmlns="http://www.w3.org/2000/svg" xmlns:svg="http://www.w3.org/2000/svg">
 <defs>
  <clipPath id="clip0_2_4237">
   <rect fill="white" height="24" id="svg_1" transform="translate(0.109863)" width="24"/>
  </clipPath>
 </defs>
 <g class="layer">
  <title>Layer 1</title>
  <g clip-path="url(#clip0_2_4237)" id="svg_2">
   <path clip-rule="evenodd" d="m3.06,10.64c0,-4.25 3.44,-7.69 7.69,-7.69c4.24,0 7.68,3.44 7.68,7.69c0,4.24 -3.44,7.68 -7.68,7.68c-4.25,0 -7.69,-3.44 -7.69,-7.68zm7.69,-8.69c-4.8,0 -8.69,3.89 -8.69,8.69c0,4.79 3.89,8.68 8.69,8.68c2.21,0 4.24,-0.83 5.77,-2.2l4.78,4.78c0.2,0.19 0.51,0.19 0.71,0c0.19,-0.2 0.19,-0.51 0,-0.71l-4.78,-4.78c1.37,-1.53 2.2,-3.56 2.2,-5.77c0,-4.8 -3.89,-8.69 -8.68,-8.69z" fill="#157b0f" fill-rule="evenodd" id="svg_3"/>
  </g>
 </g>
</svg>
